src/img/twitter.svg

<svg width="16" height="16" fill="none" xmlns="http://www.w3.org/2000/svg"><g clip-path="url(#a)"><path d="M16 3.039a6.839 6.839 0 0 1-1.89.518 3.262 3.262 0 0 0 1.443-1.813 6.555 6.555 0 0 1-2.08.794 3.28 3.28 0 0 0-5.674 2.243c0 .26.022.51.076.748a9.284 9.284 0 0 1-6.761-3.431 3.285 3.285 0 0 0 1.008 4.384A3.24 3.24 0 0 1 .64 6.078v.036a3.295 3.295 0 0 0 2.628 3.223 3.274 3.274 0 0 1-.86.108 2.9 2.9 0 0 1-.621-.056 3.311 3.311 0 0 0 3.065 2.285 6.59 6.59 0 0 1-4.067 1.399c-.269 0-.527-.012-.785-.045A9.234 9.234 0 0 0 5.032 14.5c6.036 0 9.336-5 9.336-9.334 0-.145-.005-.285-.012-.424A6.544 6.544 0 0 0 16 3.039Z" fill="#222" fill-opacity=".62"/></g><defs><clipPath id="a"><path fill="#fff" d="M0 0h16v16H0z"/></clipPath></defs></svg>

<svg width="16" height="16" viewBox="0 0 16 16" fill="none" xmlns="http://www.w3.org/2000/svg">
<g clip-path="url(#clip0_10_163)">
<path d="M16 3.039C15.405 3.3 14.771 3.473 14.11 3.557C14.79 3.151 15.309 2.513 15.553 1.744C14.919 2.122 14.219 2.389 13.473 2.538C12.871 1.897 12.013 1.5 11.077 1.5C9.261 1.5 7.799 2.974 7.799 4.781C7.799 5.041 7.821 5.291 7.875 5.529C5.148 5.396 2.735 4.089 1.114 2.098C0.831 2.589 0.665 3.151 0.665 3.756C0.665 4.892 1.25 5.899 2.122 6.482C1.595 6.472 1.078 6.319 0.64 6.078C0.64 6.088 0.64 6.101 0.64 6.114C0.64 7.708 1.777 9.032 3.268 9.337C3.001 9.41 2.71 9.445 2.408 9.445C2.198 9.445 1.986 9.433 1.787 9.389C2.212 10.688 3.418 11.643 4.852 11.674C3.736 12.547 2.319 13.073 0.785 13.073C0.516 13.073 0.258 13.061 0 13.028C1.453 13.965 3.175 14.5 5.032 14.5C11.068 14.5 14.368 9.5 14.368 5.166C14.368 5.021 14.363 4.881 14.356 4.742C15.007 4.28 15.554 3.703 16 3.039Z" fill="#222222" fill-opacity="0.62"/>
</g>
<defs>
<clipPath id="clip0_10_163">
<rect width="16" height="16" fill="white"/>
</clipPath>
</defs>
</svg>
